!!!OTL: Wuyue Zaiyiang
!!!ARE: Asia, China,ÿJiangsu, Gaochun
!! III, 506
!!!SCT: C1592
!!!YEM: Copyright 1995, estate of Helmut Schaffrath.
**kern
*ICvox
*Ivox
*M2/4
*k[b-]
*F:
{8cc
8a
8a
8ff
=1
8.dd
16cc
4a
=2
8cc
8a
8a
8ff
=3
8.dd
16cc
8a
8f}
=4
{8g
8g
8g
16f
16d
=5
4.d
8f
=6
8g
8f
4a
=7
8.g
16f
4d}
==
!!!AGN: Shange
!!!AMT: simple duple
!!!AIN: vox
!!!EED: Helmut Schaffrath
!!!EEV: 1.0
*-
